Origami/32x32/apps/ocrfeeder.svg

<svg xmlns="http://www.w3.org/2000/svg" width="32" height="32" version="1">
 <path style="opacity:0.2" d="M 13.972495,3.0000008 C 7.4075386,3.000001 2.0000002,8.4146994 2,14.988347 c 2e-7,6.573649 5.4075386,11.988348 11.972495,11.988348 1.251393,2.58e-4 2.479251,-0.213896 3.657613,-0.593174 l 2.897639,2.899526 c 1.048168,1.093125 2.716126,1.787639 4.212978,1.711226 1.496851,-0.07642 2.72505,-0.7306 3.624485,-1.631226 0.899436,-0.900627 1.552759,-2.130451 1.629071,-3.629285 0.07631,-1.498834 -0.617285,-3.169 -1.708965,-4.218556 l 0.05845,0.05659 -2.971688,-2.977575 c 0.36721,-1.160361 0.571397,-2.36967 0.572906,-3.600015 v -0.0058 c 0,-6.5736475 -5.407538,-11.9883459 -11.972494,-11.9883461 z"/>
 <path style="fill:#4f4f4f" d="M 13.972495,2.0000004 C 7.4075386,2.0000006 2.0000002,7.414699 2,13.988347 c 2e-7,6.573649 5.4075386,11.988348 11.972495,11.988348 1.251393,2.58e-4 2.479251,-0.213896 3.657613,-0.593174 l 2.897639,2.899526 c 1.048168,1.093125 2.716126,1.787639 4.212978,1.711226 1.496851,-0.07642 2.72505,-0.7306 3.624485,-1.631226 0.899436,-0.900627 1.552759,-2.130451 1.629071,-3.629285 0.07631,-1.498834 -0.617285,-3.169 -1.708965,-4.218556 l 0.05845,0.05659 -2.971688,-2.977575 c 0.36721,-1.160361 0.571397,-2.36967 0.572906,-3.600015 v -0.0058 c 0,-6.5736479 -5.407538,-11.9883463 -11.972494,-11.9883465 z"/>
 <path style="opacity:0.2" d="m 17.341916,20.425885 6.112946,6.112946 c 1.413764,1.472453 3.593547,-0.70733 2.121094,-2.121094 L 19.370131,18.211912 C 17,19 18,19 17.341916,20.425885 Z"/>
 <path style="fill:#a27f41" d="m 17.341916,19.425885 6.112946,6.112946 c 1.413764,1.472453 3.593547,-0.70733 2.121094,-2.121094 L 19.370131,17.211912 C 17,18 18,18 17.341916,19.425885 Z"/>
 <path style="fill:#ffffff;opacity:0.1" d="M 19.371094 17.210938 C 17.000963 17.999025 17.999881 17.999896 17.341797 19.425781 L 17.585938 19.669922 C 17.71748 18.969378 17.528278 18.823689 19.371094 18.210938 L 25.576172 24.417969 C 25.762115 24.596501 25.88844 24.786403 25.966797 24.980469 C 26.151648 24.489642 26.087754 23.90916 25.576172 23.417969 L 19.371094 17.210938 z"/>
 <path style="opacity:0.2" d="m 14,7 a 8.0000002,8.0000002 0 0 0 -8,8 8.0000002,8.0000002 0 0 0 8,8 8.0000002,8.0000002 0 0 0 8,-8 8.0000002,8.0000002 0 0 0 -8,-8 z"/>
 <path style="fill:#62aeff" d="m 14,6 a 8.0000002,8.0000002 0 0 0 -8,8 8.0000002,8.0000002 0 0 0 8,8 8.0000002,8.0000002 0 0 0 8,-8 8.0000002,8.0000002 0 0 0 -8,-8 z"/>
 <path style="opacity:0.1;fill:#ffffff" d="M 13.972656 2 C 7.4076998 2.0000002 2.0000002 7.4146332 2 13.988281 C 2 14.156832 2.0183521 14.321326 2.0253906 14.488281 C 2.2928607 8.1438184 7.5760278 3.0000002 13.972656 3 C 20.385714 3.0000002 25.67965 8.1701775 25.921875 14.537109 C 25.930834 14.356181 25.945089 14.176079 25.945312 13.994141 L 25.945312 13.988281 C 25.945312 7.4146333 20.537612 2.0000002 13.972656 2 z M 25.589844 17.8125 C 25.524781 18.074867 25.454643 18.33591 25.373047 18.59375 L 28.34375 21.572266 L 28.285156 21.515625 C 29.202435 22.39751 29.832196 23.717457 29.966797 25.005859 C 29.975851 24.915244 29.989422 24.827062 29.994141 24.734375 C 30.070451 23.235541 29.376836 21.565181 28.285156 20.515625 L 28.34375 20.572266 L 25.589844 17.8125 z"/>
 <path style="opacity:0.2" d="M 10,11.428571 10,12.857143 10,15 l 0,2.857143 0,0.714286 C 10,20 11,20 11,20 c 0,0 0.9995,0 0.9995,-1.428571 L 11.9995,17 16,17 16,18.571429 C 16,20 17,20 17,20 c 0,0 1,0 1,-1.428571 l 0,-7.142858 C 18,11.428571 18,10 16.666667,10 L 11.9665,10 11.333333,10 C 10,10 10,11.428571 10,11.428571 Z M 11.9995,12 16,12 l 0,3 -4.0005,0 z"/>
 <path style="fill:#ffffff" d="M 10,10.428571 10,11.857143 10,14 l 0,2.857143 0,0.714286 C 10,19 11,19 11,19 c 0,0 0.9995,0 0.9995,-1.428571 L 11.9995,16 16,16 16,17.571429 C 16,19 17,19 17,19 c 0,0 1,0 1,-1.428571 l 0,-7.142858 C 18,10.428571 18,9 16.666667,9 L 11.9665,9 11.333333,9 C 10,9 10,10.428571 10,10.428571 Z M 11.9995,11 16,11 l 0,3 -4.0005,0 z"/>
 <path style="fill:#ffffff;opacity:0.1" d="M 14 6 A 8.0000002 8.0000002 0 0 0 6 14 A 8.0000002 8.0000002 0 0 0 6.0214844 14.423828 A 8.0000002 8.0000002 0 0 1 14 7 A 8.0000002 8.0000002 0 0 1 21.978516 14.576172 A 8.0000002 8.0000002 0 0 0 22 14 A 8.0000002 8.0000002 0 0 0 14 6 z"/>
</svg>

<svg width="32" height="32" version="1" xmlns="http://www.w3.org/2000/svg">
 <path d="m13.972495 3.0000008c-6.5649564 2e-7 -11.972495 5.4146986-11.972495 11.988346 2e-7 6.573649 5.4075386 11.988348 11.972495 11.988348 1.251393 2.58e-4 2.479251-0.213896 3.657613-0.593174l2.897639 2.899526c1.048168 1.093125 2.716126 1.787639 4.212978 1.711226 1.496851-0.07642 2.72505-0.7306 3.624485-1.631226 0.899436-0.900627 1.552759-2.130451 1.629071-3.629285 0.07631-1.498834-0.617285-3.169-1.708965-4.218556l0.05845 0.05659-2.971688-2.977575c0.36721-1.160361 0.571397-2.36967 0.572906-3.600015v-0.0058c0-6.5736475-5.407538-11.988346-11.972494-11.988346z" style="opacity:.2"/>
 <path d="m13.972495 2.0000004c-6.5649564 2e-7 -11.972495 5.4146986-11.972495 11.988347 2e-7 6.573649 5.4075386 11.988348 11.972495 11.988348 1.251393 2.58e-4 2.479251-0.213896 3.657613-0.593174l2.897639 2.899526c1.048168 1.093125 2.716126 1.787639 4.212978 1.711226 1.496851-0.07642 2.72505-0.7306 3.624485-1.631226 0.899436-0.900627 1.552759-2.130451 1.629071-3.629285 0.07631-1.498834-0.617285-3.169-1.708965-4.218556l0.05845 0.05659-2.971688-2.977575c0.36721-1.160361 0.571397-2.36967 0.572906-3.600015v-0.0058c0-6.5736479-5.407538-11.988346-11.972494-11.988346z" style="fill:#4f4f4f"/>
 <path d="m 17.341916,20.425885 6.112946,6.112946 c 1.413764,1.472453 3.593547,-0.70733 2.121094,-2.121094 L 19.370131,18.211912 C 17,19 18,19 17.341916,20.425885 Z" style="opacity:.2"/>
 <path d="m 17.341916,19.425885 6.112946,6.112946 c 1.413764,1.472453 3.593547,-0.70733 2.121094,-2.121094 L 19.370131,17.211912 C 17,18 18,18 17.341916,19.425885 Z" style="fill:#a27f41"/>
 <path d="m19.371094 17.210938c-2.370131 0.788087-1.371213 0.788958-2.029297 2.214843l0.244141 0.244141c0.131542-0.700544-0.05766-0.846233 1.785156-1.458984l6.205078 6.207031c0.185943 0.178532 0.312268 0.368434 0.390625 0.5625 0.184851-0.490827 0.120957-1.071309-0.390625-1.5625l-6.205078-6.207031z" style="fill:#ffffff;opacity:.1"/>
 <path d="m14 7a8.0000002 8.0000002 0 0 0 -8 8 8.0000002 8.0000002 0 0 0 8 8 8.0000002 8.0000002 0 0 0 8 -8 8.0000002 8.0000002 0 0 0 -8 -8z" style="opacity:.2"/>
 <path d="m14 6a8.0000002 8.0000002 0 0 0 -8 8 8.0000002 8.0000002 0 0 0 8 8 8.0000002 8.0000002 0 0 0 8 -8 8.0000002 8.0000002 0 0 0 -8 -8z" style="fill:#62aeff"/>
 <path d="m13.972656 2c-6.5649562 2e-7 -11.972656 5.4146332-11.972656 11.988281 0 0.168551 0.0183521 0.333045 0.0253906 0.5 0.2674701-6.3444626 5.5506372-11.488281 11.947265-11.488281 6.413058 2e-7 11.706994 5.1701775 11.949219 11.537109 0.008959-0.180928 0.023214-0.36103 0.023437-0.542968v-0.00586c0-6.5736477-5.4077-11.988281-11.972656-11.988281zm11.617188 15.8125c-0.065063 0.262367-0.135201 0.52341-0.216797 0.78125l2.970703 2.978516-0.058594-0.056641c0.917279 0.881885 1.54704 2.201832 1.681641 3.490234 0.009054-0.090615 0.022625-0.178797 0.027344-0.271484 0.07631-1.498834-0.617305-3.169194-1.708985-4.21875l0.058594 0.056641-2.753906-2.759766z" style="fill:#ffffff;opacity:.1"/>
 <path d="m10 11.428571v1.428572 2.142857 2.857143 0.714286c0 1.428571 1 1.428571 1 1.428571s0.9995 0 0.9995-1.428571v-1.571429h4.0005v1.571429c0 1.428571 1 1.428571 1 1.428571s1 0 1-1.428571v-7.142858s0-1.428571-1.333333-1.428571h-4.700167-0.633167c-1.333333 0-1.333333 1.428571-1.333333 1.428571zm1.9995 0.571429h4.0005v3h-4.0005z" style="opacity:.2"/>
 <path d="m10 10.428571v1.428572 2.142857 2.857143 0.714286c0 1.428571 1 1.428571 1 1.428571s0.9995 0 0.9995-1.428571v-1.571429h4.0005v1.571429c0 1.428571 1 1.428571 1 1.428571s1 0 1-1.428571v-7.142858s0-1.428571-1.333333-1.428571h-4.700167-0.633167c-1.333333 0-1.333333 1.428571-1.333333 1.428571zm1.9995 0.571429h4.0005v3h-4.0005z" style="fill:#ffffff"/>
 <path d="M 14 6 A 8.0000002 8.0000002 0 0 0 6 14 A 8.0000002 8.0000002 0 0 0 6.0214844 14.423828 A 8.0000002 8.0000002 0 0 1 14 7 A 8.0000002 8.0000002 0 0 1 21.978516 14.576172 A 8.0000002 8.0000002 0 0 0 22 14 A 8.0000002 8.0000002 0 0 0 14 6 z" style="fill:#ffffff;opacity:.1"/>
</svg>
